!!!OTL: Das Maedchen in Sachsenland.
!!!OTL-incipit: IM SACHSENLAND KENN ICH EIN STAEDCHEN
!!!COM: Volksweise
!!!ARE: Europa, Mitteleuropa, Deutschland
!!!SCT: F0143
!!!TXL: @@DE
!!!YEM: Copyright 1995, estate of Helmut Schaffrath.
**kern	**text
*ICvox	*
*clefG2	*
*M6/8	*
*k[f#]	*
*G:	*
!LO:TX:a:t=Gemüthlich froh.	!
{8d	1._Jm
=1	=1
8g	Sachſenland
8g	.
8g	.
8a	kenn'
8f#	ich
8d	ein
=2	=2
(4g	Städt-
8b/)	.
4d}	-chen,
{8d	im
=3	=3
8g	Städtchen
8g	.
8g	da
8a	kenn'
8f#	ich
8d	ein
=4	=4
(4g	Mäd-
8b/)	.
4dd}	-chen,
{8b	beim
=5	=5
8.a	Him-
16a	mel,
8a	wie's
8gg	we-
8ee	-ni-
8cc#	-ge
=6	=6
4dd	giebt!
8r	.
4r}	.
{8dd	Jüngſt
=7	=7
(16ddL	hab'
16ccnJ)	.
8a	ich
8a	ſie
8a	wie-
8g	-der
8a	ge-
=8	=8
(4g	-ſe-
8b)	.
4d}	-hen,
{8dd	und
=9	=9
(16ddL	bin
16ccJ)	.
8a	nun,
8a	ich
8bq	.
8a	muß
8g	es
8a	ge-
=10	=10
(4g	-ſte-
8b/)	.
4dd}	-hen,
{8dd	vom
=11	=11
8gg	Herʒen
8gg	.
8gg	in's
8gg	Mädel
8ff#	.
8ffn	ver-
=12	=12
4.ee	-liebt,
4r}	.
{8ee	vom
=13	=13
8.dd	Her-
16ee	-ʒen
8dd	in's
8cc	Mädel
8b	.
8a	ver-
=14	=14
4.g	-liebt.
4r}	.
==	==
!!!AGN: Liebes - Lied
!!!ONB: ESAC (Essen Associative Code) Database: FINK
!!!AMT: compound duple
!!!AIN: vox
!!!EED: Helmut Schaffrath
!!!EEV: 1.0
!!!GTL: Volkslieder
!!Text: Volkslied
!!!source: Musikalischer Hausschatz der Deutschen. Eine Sammlung von über 1000 Liedern und Gesängen mit Singstimmen und Klavierbegleitung. Leipzig, Litterarisches Verlags-Haus.
!!!page: 84
!!!URL-scan: https://www.digitale-sammlungen.de/en/view/bsb11144622?page=92,93
!!!ENC: Anna Maria Matuszewska
!!!EEV: 2024/26/07
*-	*-